neru-light-classic/22x22/panel/hangouts-working.svg

<svg xmlns="http://www.w3.org/2000/svg" width="22" height="22" version="1.1">
 <defs>
  <style id="current-color-scheme" type="text/css">
   .ColorScheme-Text { color:#1e333d; } .ColorScheme-Highlight { color:#3fb7ff; }
  </style>
 </defs>
 <path style="fill:currentColor" class="ColorScheme-Text" d="M 10.503906 3 C 10.493886 3.022434 10.472108 3.014094 10.455078 3.015625 C 10.21665 3.035842 9.9794586 3.0606006 9.7441406 3.1035156 C 8.0246087 3.4167985 6.6125151 4.2312678 5.5195312 5.5429688 C 4.6204623 6.6216853 4.1265395 7.8584973 4.0195312 9.2382812 C 3.9677272 9.9070075 4.0175193 10.867786 4.1699219 11.521484 C 4.2831005 12.007738 4.45244 12.478665 4.6796875 12.927734 C 4.6996395 12.965954 4.7179703 13.004754 4.7382812 13.042969 C 5.1116209 13.750002 5.5915032 14.379664 6.1933594 14.923828 C 6.5101937 15.210288 6.8502087 15.469426 7.2167969 15.693359 C 8.1874613 16.285893 9.2371416 16.869986 10.361328 16.986328 L 10.607422 17.011719 C 10.689212 17.012819 11.000531 17.032934 11 17.113281 C 10.9963 17.798988 10.997947 18.228225 10.998047 18.914062 C 10.998136 18.940673 11.000353 18.96691 11.001953 19 C 11.001953 19 11.276308 18.875739 11.509766 18.765625 C 12.673356 18.196991 13.74983 17.50128 14.720703 16.652344 C 14.93882 16.461681 15.14693 16.260797 15.347656 16.052734 C 15.433606 15.963754 15.519343 15.872091 15.605469 15.783203 C 15.73852 15.646366 15.853097 15.493695 15.978516 15.349609 C 16.123368 15.183427 16.254553 15.005912 16.382812 14.828125 C 16.666384 14.435195 16.919936 14.026728 17.132812 13.59375 C 17.24049 13.374852 17.342847 13.15354 17.433594 12.927734 C 17.436594 12.923534 17.439506 12.920646 17.441406 12.916016 C 17.688705 12.297701 17.847284 11.658354 17.931641 11.001953 C 17.961101 10.773324 17.980108 10.54241 17.992188 10.3125 C 18.017907 9.8174554 17.985398 9.0242039 17.892578 8.5371094 C 17.645553 7.2380258 17.053212 6.1030474 16.119141 5.1347656 C 15.72511 4.7259677 15.28296 4.3718805 14.794922 4.0703125 C 13.886853 3.5086369 12.895449 3.1629545 11.822266 3.0410156 C 11.691436 3.0260894 11.558657 3.0296081 11.429688 3 L 10.503906 3 z M 8 9 A 1 1 0 0 1 9 10 A 1 1 0 0 1 8 11 A 1 1 0 0 1 7 10 A 1 1 0 0 1 8 9 z M 11 9 A 1 1 0 0 1 12 10 A 1 1 0 0 1 11 11 A 1 1 0 0 1 10 10 A 1 1 0 0 1 11 9 z M 14 9 A 1 1 0 0 1 15 10 A 1 1 0 0 1 14 11 A 1 1 0 0 1 13 10 A 1 1 0 0 1 14 9 z"/>
</svg>

<svg xmlns="http://www.w3.org/2000/svg" width="22" height="22"><defs><style id="current-color-scheme" type="text/css"></style></defs><path d="M10.504 3c-.01.022-.032.014-.049.016-.238.02-.476.045-.71.088-1.72.313-3.132 1.127-4.225 2.439a6.417 6.417 0 0 0-1.5 3.695c-.052.669-.002 1.63.15 2.283.113.487.282.958.51 1.407l.058.115a6.857 6.857 0 0 0 2.479 2.65c.97.593 2.02 1.177 3.144 1.293l.246.026c.082 0 .394.02.393.101-.004.686-.002 1.115-.002 1.801 0 .027.002.053.004.086 0 0 .274-.124.508-.234a14.546 14.546 0 0 0 3.21-2.114c.219-.19.427-.391.628-.6.086-.088.171-.18.257-.269.134-.137.248-.29.374-.433a7.18 7.18 0 0 0 .404-.522c.283-.393.537-.801.75-1.234.107-.22.21-.44.3-.666.004-.004.007-.007.008-.012a7.81 7.81 0 0 0 .49-1.914c.03-.229.05-.46.061-.69.026-.495-.007-1.288-.1-1.775a6.581 6.581 0 0 0-1.773-3.402 7.113 7.113 0 0 0-4.297-2.094c-.13-.015-.263-.011-.392-.041h-.926zM8 9a1 1 0 0 1 1 1 1 1 0 0 1-1 1 1 1 0 0 1-1-1 1 1 0 0 1 1-1zm3 0a1 1 0 0 1 1 1 1 1 0 0 1-1 1 1 1 0 0 1-1-1 1 1 0 0 1 1-1zm3 0a1 1 0 0 1 1 1 1 1 0 0 1-1 1 1 1 0 0 1-1-1 1 1 0 0 1 1-1z" fill="currentColor" color="#1e333d"/></svg>
